X:1
T:Title
%%score { 1 | 2 }
L:1/8
Q:1/4=100
M:6/8
K:Ab
V:1 treble nm="Grand Piano"
V:2 bass 
V:1
 [Ec][DB][CA] [Ec][DB][CA] | [DF]2 [DA] [CE]3 | [Ec][DB][CA] [Ec]2 [EA] | [DB]6 | %4
w: B.~Frank~Butts * * * * *||||
 [Ec][DB][CA] [Ec][DB][CA] | [DF]2 [DA] [CE]3 | GGA c2 B | [CA]6 | BBc dcB | c2 d e3 | %10
w: ||||||
 [CA][CA][CA] [Ec]2 [EA] | B6 | ccd ecB | [FA]2 F A3 | EAc B2 c | [CA]6 |] %16
w: ||||||
V:2
 [A,,A,][A,,A,][A,,A,] [A,,A,][A,,A,][A,,A,] | [D,A,]2 [D,F,] [A,,A,]3 | %2
 [A,,A,][A,,A,][A,,A,] [A,,A,]2 [C,A,] | [E,G,]6 | [A,,A,][A,,A,][A,,A,] [A,,A,][A,,A,][A,,A,] | %5
 [D,A,]2 [D,F,] [A,,A,]3 | [E,B,D][E,B,D][E,CE] [E,A,E]2 [E,G,D] | [A,,A,]6 | %8
 [E,G,E][E,G,E][E,A,E] [E,B,E][E,A,E][E,G,E] | [A,E]2 [A,B,E] [A,CE]3 | %10
 [A,,A,][A,,A,][A,,A,] [A,,A,]2 [C,A,] | [E,G,E]6 | [A,E][A,E][A,B,E] [A,CE][A,E][A,C_G] | %13
 [D,D]2 [D,A,D] [=D,A,_C]3 | [E,A,C][E,A,C][E,A,E] [E,G,D]2 [E,G,E] | [A,,A,]6 |] %16

